app/img/photos/serv-5.svg

<svg width="63" height="63" viewBox="0 0 63 63" fill="none" xmlns="http://www.w3.org/2000/svg">
<g clip-path="url(#clip0)">
<path d="M61.8939 6.69593L61.2896 5.35634L53.1737 13.4733C52.687 13.959 52.04 14.2269 51.3519 14.2269C49.9314 14.2269 48.7754 13.0709 48.7754 11.6514C48.7754 10.9633 49.0433 10.3173 49.53 9.82958L57.6459 1.71366L56.3063 1.10836C54.0588 0.0922567 51.4913 -0.644517 47.9473 0.838953C43.4021 2.7372 40.5379 6.9058 40.6505 11.4579C40.6738 12.4328 40.8301 13.4038 41.1149 14.3549L14.3549 41.1149C13.313 40.8033 12.2483 40.6456 11.1796 40.6456C5.01697 40.6456 0.00244141 45.6601 0.00244141 51.8227C0.00244141 57.9853 5.01697 62.9998 11.1796 62.9998C17.3422 62.9998 22.3567 57.9853 22.3567 51.8227C22.3567 50.755 22.1989 49.6903 21.8883 48.6484L48.6474 21.8884C49.597 22.1722 50.5684 22.3284 51.5429 22.3527C56.0821 22.4788 60.2641 19.5991 62.1633 15.055C63.6448 11.51 62.909 8.94346 61.8939 6.69593ZM31.5016 28.4523C33.1821 28.4523 34.5499 29.8202 34.5499 31.5007C34.5499 33.1816 33.1821 34.549 31.5016 34.549C29.8207 34.549 28.4533 33.1816 28.4533 31.5007C28.4533 29.8202 29.8207 28.4523 31.5016 28.4523ZM31.1196 36.5425L26.4211 41.2409L21.7613 36.5812L26.4593 31.8827C26.6493 34.3753 28.628 36.3539 31.1196 36.5425ZM31.8847 26.4588L36.5821 21.7604L41.2419 26.4201L36.5434 31.1186C36.3544 28.6275 34.3758 26.6489 31.8847 26.4588ZM19.7718 48.7178C20.1384 49.7329 20.3245 50.7783 20.3245 51.8227C20.3245 56.866 16.2214 60.9676 11.1796 60.9676C6.13726 60.9676 2.03465 56.866 2.03465 51.8227C2.03465 46.7799 6.13726 42.6778 11.1796 42.6778C12.2259 42.6778 13.2703 42.8648 14.2834 43.2315L14.8912 43.4523L20.3245 38.018L24.9843 42.6778L19.551 48.1111L19.7718 48.7178ZM60.2889 14.2716C58.7146 18.0383 55.3036 20.4193 51.594 20.3205C50.6255 20.2972 49.657 20.1122 48.7173 19.7718L48.1096 19.5525L42.6788 24.9833L38.019 20.3235L43.4498 14.8927L43.2305 14.284C42.8901 13.3443 42.7051 12.3768 42.6807 11.4083C42.589 7.69963 44.964 4.28666 48.7292 2.71339C50.8235 1.83769 52.4329 1.88036 54.0732 2.40975L48.0922 8.39175C47.2224 9.26249 46.7432 10.4205 46.7432 11.6514C46.7432 14.1927 48.8106 16.2591 51.3519 16.2591C52.5838 16.2591 53.7408 15.7798 54.6105 14.9101L60.5915 8.92808C61.1199 10.5678 61.1636 12.1773 60.2889 14.2716Z" fill="white"/>
<path d="M11.1791 44.71C7.25661 44.71 4.06641 47.9017 4.06641 51.8227C4.06641 55.7442 7.25661 58.9354 11.1791 58.9354C15.1011 58.9354 18.2918 55.7442 18.2918 51.8227C18.2918 47.9017 15.1011 44.71 11.1791 44.71ZM11.1791 56.9032C8.3774 56.9032 6.09861 54.6244 6.09861 51.8227C6.09861 49.0215 8.3774 46.7422 11.1791 46.7422C13.9804 46.7422 16.2596 49.0215 16.2596 51.8227C16.2596 54.6244 13.9804 56.9032 11.1791 56.9032Z" fill="white"/>
</g>
<defs>
<clipPath id="clip0">
<rect width="63" height="63" fill="white"/>
</clipPath>
</defs>
</svg>

<svg width="63" height="63" viewBox="0 0 63 63" fill="none" xmlns="http://www.w3.org/2000/svg"><g clip-path="url(#a)" fill="#fff"><path d="M61.894 6.696l-.604-1.34-8.116 8.117a2.58 2.58 0 0 1-4.398-1.822c0-.688.267-1.334.754-1.821l8.116-8.116-1.34-.606C54.06.092 51.491-.645 47.947.84c-4.545 1.898-7.41 6.067-7.297 10.619.024.975.18 1.946.465 2.897l-26.76 26.76a11.06 11.06 0 0 0-3.175-.47C5.017 40.646.002 45.66.002 51.824.002 57.985 5.017 63 11.18 63c6.162 0 11.177-5.015 11.177-11.177 0-1.068-.158-2.133-.469-3.175l26.76-26.76c.949.284 1.92.44 2.895.465 4.54.126 8.721-2.754 10.62-7.298 1.482-3.545.746-6.112-.27-8.36zM31.502 28.452a3.052 3.052 0 0 1 3.048 3.049 3.052 3.052 0 0 1-3.048 3.048 3.052 3.052 0 0 1-3.049-3.048 3.052 3.052 0 0 1 3.049-3.049zm-.382 8.09l-4.699 4.699-4.66-4.66 4.698-4.698a5.056 5.056 0 0 0 4.66 4.66zm.765-10.083l4.697-4.699 4.66 4.66-4.699 4.699a5.057 5.057 0 0 0-4.658-4.66zM19.772 48.718a9.125 9.125 0 0 1 .553 3.105c0 5.043-4.104 9.145-9.145 9.145-5.043 0-9.145-4.102-9.145-9.145 0-5.043 4.102-9.145 9.145-9.145a9.1 9.1 0 0 1 3.103.553l.608.221 5.434-5.434 4.66 4.66-5.434 5.433.22.607zm40.517-34.446c-1.574 3.766-4.985 6.147-8.695 6.048a9.08 9.08 0 0 1-2.877-.548l-.607-.22-5.431 5.431-4.66-4.66 5.43-5.43-.218-.609a9.107 9.107 0 0 1-.55-2.876c-.092-3.708 2.283-7.121 6.048-8.695 2.095-.875 3.704-.833 5.344-.303l-5.98 5.982a4.583 4.583 0 0 0-1.35 3.26 4.613 4.613 0 0 0 4.609 4.607c1.232 0 2.389-.48 3.259-1.349l5.98-5.982c.529 1.64.573 3.25-.302 5.344z"/><path d="M11.18 44.71c-3.923 0-7.114 3.192-7.114 7.113 0 3.921 3.19 7.112 7.113 7.112 3.922 0 7.113-3.19 7.113-7.112 0-3.921-3.19-7.113-7.113-7.113zm0 12.193a5.086 5.086 0 0 1-5.081-5.08 5.086 5.086 0 0 1 5.08-5.08c2.801 0 5.08 2.279 5.08 5.08s-2.279 5.08-5.08 5.08z"/></g><defs><clipPath id="a"><path fill="#fff" d="M0 0h63v63H0z"/></clipPath></defs></svg>
